media/costumes/muffin-a.svg

<svg width="247" height="209" viewBox="146 125 247 209" xmlns="http://www.w3.org/2000/svg"><path fill="#703D00" d="M46.66 51.172c6.112 0 11.651 1.006 15.662 2.632 4.01 1.625 6.494 3.87 6.494 6.348 0 2.478-2.483 4.723-6.494 6.348-4.01 1.626-9.55 2.632-15.663 2.632-6.113 0-11.652-1.006-15.663-2.632-4.01-1.625-6.493-3.87-6.493-6.348 0-2.477 2.483-4.723 6.493-6.348 4.011-1.626 9.55-2.632 15.663-2.632z"/><path fill="#A85B00" stroke="#A85B00" stroke-width="1.995" stroke-linecap="round" d="M197.8 176.4a471.469 471.469 0 0 1 31.55.5c2.626.132 6.619-1.583 6.45 1-.676 10.327-5.044 20.644-8.85 30.55-2.104 5.623-3.082 14.022-8.8 16.6-9.456 3.986-20.86 2.573-31.1 1-3.722-.599-6.05-4.022-8.1-6.7-3.451-4.497-5.951-9.711-8.15-14.5-3.71-8.179-9.069-16.385-10.2-24.9-.308-2.32 3.935-2.19 6.55-2.55 10.112-1.314 20.556-.828 30.65-1z" transform="matrix(.8981 0 0 .8145 -137.434 -120.843)"/><path fill="#703D00" d="M42.151 25.646c8.612 0 16.416.945 22.067 2.47 5.651 1.527 9.15 3.635 9.15 5.96 0 2.326-3.499 4.434-9.15 5.96-5.65 1.526-13.455 2.47-22.067 2.47-8.611 0-16.416-.944-22.067-2.47-5.65-1.526-9.149-3.634-9.149-5.96 0-2.325 3.498-4.433 9.15-5.96 5.65-1.525 13.455-2.47 22.066-2.47z"/><path fill="#F0C444" stroke="#A85B00" stroke-width="1.995" stroke-linecap="round" d="M194.95 126.15c11.565.368 22.701 5.975 32.65 11.9 4.427 3.003 9.204 8.504 8.6 13.725-.606 5.21-4.645 7.902-12.148 10.621-7.504 2.72-17.866 4.404-29.302 4.404s-21.798-1.684-29.302-4.404c-7.503-2.719-12.61-5.283-12.148-10.621.675-7.078 7.814-12.407 13.65-16.325 8.528-4.919 18.346-9.61 28-9.3z" transform="matrix(.95937 0 0 .86034 -145.782 -106.752)"/></svg>

<svg version="1.1" width="247" height="209" viewBox="146 125 247 209" xmlns="http://www.w3.org/2000/svg" xmlns:xlink="http://www.w3.org/1999/xlink">
  <!-- Exported by Scratch - http://scratch.mit.edu/ -->
  <g id="ID0.6519905929453671" transform="matrix(0.8145062327384949, 0, 0, 0.8145062327384949, -118.7, -101.05)">
    <path id="ID0.2171387574635446" fill="#703D00" stroke="none" d="M 166.525 201 C 175.457 201 183.551 202.361 189.412 204.561 C 195.272 206.760 198.900 209.798 198.900 213.150 C 198.900 216.502 195.272 219.540 189.412 221.739 C 183.551 223.939 175.457 225.300 166.525 225.300 C 157.593 225.300 149.499 223.939 143.638 221.739 C 137.778 219.540 134.150 216.502 134.150 213.150 C 134.150 209.798 137.778 206.760 143.638 204.561 C 149.499 202.361 157.593 201 166.525 201 Z " transform="matrix(0.8402206301689148, 0, 0, 0.9074074029922485, 63.1, 4.5)"/>
    <path id="ID0.43220555409789085" fill="#A85B00" stroke="#A85B00" stroke-width="1.995125" stroke-linecap="round" d="M 197.800 176.400 C 208.304 176.219 218.860 176.377 229.350 176.900 C 231.976 177.032 235.969 175.317 235.800 177.900 C 235.124 188.227 230.756 198.544 226.950 208.450 C 224.846 214.073 223.868 222.472 218.150 225.050 C 208.694 229.036 197.290 227.623 187.050 226.050 C 183.328 225.451 181 222.028 178.950 219.350 C 175.499 214.853 172.999 209.639 170.800 204.850 C 167.090 196.671 161.731 188.465 160.600 179.950 C 160.292 177.630 164.535 177.760 167.150 177.400 C 177.262 176.086 187.706 176.572 197.800 176.400 Z " transform="matrix(1.1026300191879272, 0, 0, 1, -23, -24.3)"/>
    <path id="ID0.8022473398596048" fill="#703D00" stroke="none" d="M 140.875 204.100 C 149.310 204.100 156.954 205.260 162.489 207.133 C 168.024 209.007 171.450 211.595 171.450 214.450 C 171.450 217.305 168.024 219.893 162.489 221.767 C 156.954 223.640 149.310 224.800 140.875 224.800 C 132.440 224.800 124.796 223.640 119.261 221.767 C 113.726 219.893 110.300 217.305 110.300 214.450 C 110.300 211.595 113.726 209.007 119.261 207.133 C 124.796 205.260 132.440 204.100 140.875 204.100 Z " transform="matrix(1.2534749507904053, 0, 0, 1, 20.9, -48.55)"/>
    <path id="ID0.818717781919986" fill="#F0C444" stroke="#A85B00" stroke-width="1.995125" stroke-linecap="round" d="M 194.950 126.150 C 206.515 126.518 217.651 132.125 227.600 138.050 C 232.027 141.053 236.804 146.554 236.200 151.775 C 235.594 156.985 231.555 159.677 224.052 162.396 C 216.548 165.116 206.186 166.800 194.750 166.800 C 183.314 166.800 172.952 165.116 165.448 162.396 C 157.945 159.677 152.838 157.113 153.300 151.775 C 153.975 144.697 161.114 139.368 166.950 135.450 C 175.478 130.531 185.296 125.840 194.950 126.150 Z " transform="matrix(1.1778563261032104, 0, 0, 1.056272029876709, -33.25, -7)"/>
  </g>
</svg>
